X:1656
L:1/8
M:2/2
K:C
 EGcG AGcG | EGce dDDF | EGcG AGga | egde c/c/c c2 ::{a} gecg egce | acec d/d/d da |{a} gf/e/ cg | 
 eccG | AB/c/ GE C/C/C C2 :|

